!! 00000] TT[WS
!!!OTL: Chuanbusi de riben guizi
!!!ARE: Asia, China, Shanxi Hequ
!! Ethnic Group: Han
!! WI, 282
!!!SCT: J0338
!!!YEM: Copyright 1995, estate of Helmut Schaffrath.
**kern
*ICvox
*Ivox
*M2/4
*k[b-]
*F:
{8.ff
16dd
8cc
16cc
16ff
=1
8cc
16cc
16g
8f
8c
=2
8f
16f
16g
8cc
8cc
=3
2c}
=4
{8ff
16ff
16dd
8cc
8ff
=5
8cc
8g
8f
8c
=6
8f
8g
8f
8c
=7
8f
16f
16g
8f
8c}
=8
{8b-
8g
8f
8c
=9
8.f
16g
8f
8c
=10
8cc
8g
8f
8c}
=11
{8f
8g
8f
8c
=12
8cc
8g
8f
8c
=13
8f
8g
8f
8c
=14
8cc
8g
8f
8c}
=15
{8cc
8g
8f
8c
=16
8f
16f
16g
[4cc
=17
2cc]
=18
8ff
4cc
8b-
=19
8g
8f
4r}
==
!!!AGN: Xiaodiao. Xinminge, Xuanchuan
!! Neue Text. Politische Liede
!!!ONB: ESAC (Essen Associative Code) Database: CHINA
!!!AMT: simple duple
!!!AIN: vox
!!!EED: Helmut Schaffrath
!!!EEV: 1.0
*-
!!!ONB: Tied note syntax fixed by Craig Sapp, 2004/05/03/
